X:150
T: Sichelein - Rauschen
N: A0180B
O: Europa, Mitteleuropa, Deutschland
N: Werlin Hs. 1646 S. 1564.
R: Romanze, Ballade, Lied
M: 4/4
L: 1/4
K: G
G | G_BAG | d2d
G | ddc_B | A2z
d | c_BAG | d2_B
G | A_BcA | G2z

@@@ Tune index: 150
